X: 2157
T:Ovcepolsko Potrculka
O:Macedonia
M:2/4
K:Bbm
cde2 e2d2|cde2 B4|cde2 e2d2|cde2 B4||\
|:A4 dcB2|cde2 B4|A4 dcB2|cde2 B4:|
